X:1
T:Big Black Bella
M:C|
L: 1/8
R:reel
C:T. S. Macdonald
K:D
D2 FD ADFD | E=c c/c/c E=CCE | D2 FD AFdA | fedc dAFE |
D2 FD ADFD | E=c c/c/c cdec | Adcd AFED | CDEC D2 D2 ||
Adfd gfed | G=cec gfed | Adfa bagf | eAcA d2 !turn!d2 |
Adfd gfed | G=cec gcac | bfea gdBA | CDEC D2 D2 |]

